VARIANT
CUT[Sixt as net, do kummt er, lange Schrittla nimmt er]
REG[Europa, Mitteleuropa, Deutschland, Ober - Franken, Zochenreuth]
KEY[V0003I 08  A 2/4]
MEL[-5-51-5  -7_-6_
    -4-4-7-4  -6_-5_
    -5-5-6-3  -5-5-4_
    -2-2-5-2  -4-4-3_ //] >>
FCT[Geselligkeits - Lied, Scherz]
